X: 25
T: Hop Light Ladies
T: Hop High Ladies
T: Don't You Want to Go to Heaven, Uncle Joe?
L:1/8
M:2/4
S:Ruth - Pioneer Western Folk Tunes (1924)
Z:AK/Fiddler's Companion
K:G
G/A/B/c/ d/B/G/A/|BB/A/ BA|GA/B/c/ d/B/G/B/|AA/B/ Az|
G/A/B/c/ d/B/G/A/|BB/A/ Bd|e>d e/f/g/d/|BA Gz:|
|:Gg e/f/g/d/|BB/A/ BA|Gb e/f/g/e/|a>b a2|Gg e/f/g/d/|BB/A/ Bd|e>d e/f/g/d/|BA G2:|
|:G/G/ g/g/ e/e/g/g/|BB/c/ BA|G/G/ g/g/ e/e/g/g/|a>b a2|G/G/ g/g/ e/e/g/g/|BB/A/ Bd|e>d e/f/g/d/|BA G2:|

%%sep 1 1 500
